!!!OTL: Das Lied vom Christian (2-55), S. 146
!!!id: K1137
**kern
*clefG2
*k[b-e-]
*B-:
{8f
8f
8f
=1
4.dd
8b-
8a
8g
=2
4ee-}
8r
=3
{8f
8f
8g
=4
4.f
16e-
16e-
4e-
=5
4d}
8r
=6
{8f
8f
8f
=7
4.dd
8b-
8a
8g
=8
4ee-}
8r
=9
{8f
8f
8g
=10
4.f
8e-
4e-
=11
4d}
8r
=12
{8g
8g
8g
=13
8g
8a
8.b-
16g
4g
=14
4f}
8r
=15
{8b-
8b-
8b-
=16
8a
8b-
8.cc
16b-
4a
=17
4g}
8r
=18
{8g
8g
8g
=19
8g
8a
8.b-
16g
4g
=20
4f}
8r
=21
{8b-
8b-
8b-
=22
8a
8b-
4.cc
8a
=23
4b-}
8r
==
*-
!!!minrhy: 16
!!!meters: 3/4 ]  ZZ[8
!!!cut: Das Lied vom Christian (2-55), S. 146
!!!reg: Luxemburg
!!!trd: KINTZELE, Guillaume: An der Ucht, Bd. 2, Luxemburg 1927
!!!rhy1: X_X_X_  X__.X_X_X_  X__0_
!!!rhy2: X_X_X_  X__.XXX__  X__0_
!!!key: K1137  16 Bb 3/4 ]  ZZ[8
!!!mod: HEPTATONIK IONISCH]  AMBITUS[9b
!!!kad: 4-34-3-5-6-51
!!!akz: 34_-5-3_34_-5-3_-6-5_-7-6_-6-5_-71_
!!!fot: 'a__b__a__bv_c__cs"c__d__
!!!for: 'a__b__a__c__d__d__d__e__
!!!fok: '~a_\__~a_\__\__\__\__-__
!! PHRAS[AUFTAKTIG]
!!!fkt: Spott- und Scherzlied &uuml;ber Trennungsschmerz
!! KINTZELE
!! PR[39] 2K[0] 2G[0] 3K[8] 3G[8] 4A[4] 4Ü[0] 5A[1] 6K[3] 6G[0]
!! 7K[0] 7G[0] 8A[0] MEHR[0] SI[23] ABS[77] SR[0] SP[23]
!! ST[24] 2k[0] 2g[21] 3k[16] 3g[0] 4d[0] 4ü[0] 5d[1] 6k[0] 6g[0]
!! 7k[0] 7g[0] 8d[0] mehr[0] si[38] dm[-15] sr[21] sp[17]
!! 1F[83] 2F[17] 3F[0] 4F[0] LF[0] 2P[0] 3P[0] 4P[0] TRI[0] DF[2] AB[82]
!! TF[0] U3K[0] U3[0] U4[0] U4Ü[0] U5[3] U6K[0] U6[0] U7K[0] U7[0]
!! N1[13] N2K[0] N2[13] N3K[0] N3[23] N4[5] N4Ü[0] N5[38] N6K[0] N6[3]
!!!n7k: 0] N7[0] O1[3] O2K[0] O2[0] O3K[0] O3[0] HÖ[0
!!!RNB: symbol: &uuml;  = u umlaut (UTF-8: Ã¼)
